X: 100
M: 3/4
L: 1/8
Q: "Tempo di Valse."
K: D
|:\
a2abag | f2d2d2 | e2A2A2 | f2d2d2 |\
a2abag | f2d2d2 | e2A2A2 | d6 :|
|:\
e2A2A2 | f2d2d2 | e2A2A2 | f2d2d2 |\
a2abag | f2d2d2 | e2A2A2 | d6 :|
Q: "Presto."
M: 2/4
L: 1/16
|:\
abag fdef | gfed cAfg |\
abag fddc | B2c2 d4 :|
|:\
fdge fdef | gfed cAAg |\
fdge fddc | B2c2 d4 :|
of the Athole Collection, 1884, by James Stewart-Robertson.

